X: 74
T:Key to the Cellar
M:3/2
L:1/4
K:Bm
"Em"GEEDE2|GEEG "D"F/G/A|"Em"GEEDE2|"D"FDDB "Bm" AG/F/|
"Em"GEEDE2|GEEG "D"F/G/A|"Em"GEEDE2|"D"FDDB "Bm" AG/F/||
"Em"Eeede2|Eeefge|Eeed/c/"D"d>B|AFDBAG/F/|
"Em"Eeede2|Eeefge|Eeed/c/"D"d>B|AFDB"Bm"AG/F/|]

